src/main/resources/icons/AntIcons/icons/logVerbose.svg

<svg xmlns="http://www.w3.org/2000/svg" width="16" height="16" viewBox="0 0 16 16"><rect id="frame" width="16" height="16" fill="none"/><path fill="#9AA7B0" fill-opacity=".8" fill-rule="evenodd" d="M2 2h12v12H2V2zm3 3v1h6V5H5zm0 2v1h6V7H5zm0 2v1h6V9H5z"/></svg>

<svg xmlns="http://www.w3.org/2000/svg" width="16" height="16" viewBox="0 0 16 16">
  <path fill="#9AA7B0" fill-opacity=".8" fill-rule="evenodd" d="M2,2 L14,2 L14,14 L2,14 L2,2 Z M5,5 L5,6 L11,6 L11,5 L5,5 Z M5,7 L5,8 L11,8 L11,7 L5,7 Z M5,9 L5,10 L11,10 L11,9 L5,9 Z"/>
</svg>
